icon/cg/arrows-expand-right.svg

<svg viewBox="0 0 24 24" fill="none" xmlns="http://www.w3.org/2000/svg" height="1em" width="1em">
  <path d="M13.8995 4.10052V2.10052H21.8995V10.1005H19.8995V5.51477L14.1213 11.293L12.7071 9.87878L18.4854 4.10052H13.8995Z" fill="currentColor"/>
  <path d="M4.10046 13.8995H2.10046V21.8995H10.1005V19.8995H5.51468L11.2929 14.1212L9.87872 12.707L4.10046 18.4853V13.8995Z" fill="currentColor"/>
</svg>

<svg width="24" height="24" fill="none" xmlns="http://www.w3.org/2000/svg"><path d="M13.9 4.1v-2h8v8h-2V5.516l-5.779 5.778-1.414-1.414L18.485 4.1H13.9ZM4.1 13.9h-2v8h8v-2H5.516l5.778-5.779-1.414-1.414L4.1 18.485V13.9Z" fill="currentColor"/></svg>
